src/assets/img/unsorted/tchat.svg

<svg xmlns:xlink="http://www.w3.org/1999/xlink" height="15.05" width="18.05" xmlns="http://www.w3.org/2000/svg"><use height="15.05" width="18.05" xlink:href="#a"/><defs><g id="a"><path d="m-6.1 7.05 1.3-2.85-1.2-.65Q-8.5 1.7-8.5-.85q0-2.3 2.05-4L-6-5.2l.65-.45Q-3.05-7.05.05-7q3.5-.05 6 1.8 2.5 1.8 2.5 4.35t-2.5 4.4q-2.5 1.8-6 1.8l-2.1-.25q-2.55 1.6-4 1.95h-.05M3.75 2.5h-7.1 7.1M6-.55H-5.6 6M4.55-3.5h-9.5 9.5" fill="#fff" fill-rule="evenodd" transform="translate(9 7.5)"/><path d="M-4.95-3.5h9.5M-5.6-.55H6M-3.35 2.5h7.1M-6.1 7.05l1.3-2.85-1.2-.65Q-8.5 1.7-8.5-.85q0-2.3 2.05-4L-6-5.2l.65-.45Q-3.05-7.05.05-7q3.5-.05 6 1.8 2.5 1.8 2.5 4.35t-2.5 4.4q-2.5 1.8-6 1.8l-2.1-.25q-2.55 1.6-4 1.95" fill="none" stroke="#69c" stroke-linecap="round" stroke-linejoin="round" transform="translate(9 7.5)"/></g></defs></svg>

<?xml version="1.0" encoding="UTF-8" standalone="no"?>
<svg xmlns:xlink="http://www.w3.org/1999/xlink" height="15.05px" width="18.05px" xmlns="http://www.w3.org/2000/svg">
  <g transform="matrix(1.0, 0.0, 0.0, 1.0, 9.0, 7.5)">
    <use height="15.05" transform="matrix(1.0, 0.0, 0.0, 1.0, -9.0, -7.5)" width="18.05" xlink:href="#shape0"/>
  </g>
  <defs>
    <g id="shape0" transform="matrix(1.0, 0.0, 0.0, 1.0, 9.0, 7.5)">
      <path d="M-6.1 7.05 L-4.8 4.2 -6.0 3.55 Q-8.5 1.7 -8.5 -0.85 -8.5 -3.15 -6.45 -4.85 L-6.0 -5.2 -5.35 -5.65 Q-3.05 -7.05 0.05 -7.0 3.55 -7.05 6.05 -5.2 8.55 -3.4 8.55 -0.85 8.55 1.7 6.05 3.55 3.55 5.35 0.05 5.35 L-2.05 5.1 Q-4.6 6.7 -6.05 7.05 L-6.1 7.05 M3.75 2.5 L-3.35 2.5 3.75 2.5 M6.0 -0.55 L-5.6 -0.55 6.0 -0.55 M4.55 -3.5 L-4.95 -3.5 4.55 -3.5" fill="#ffffff" fill-rule="evenodd" stroke="none"/>
      <path d="M-4.95 -3.5 L4.55 -3.5 M-5.6 -0.55 L6.0 -0.55 M-3.35 2.5 L3.75 2.5" fill="none" stroke="#6699cc" stroke-linecap="round" stroke-linejoin="round" stroke-width="1.0"/>
      <path d="M-6.1 7.05 L-4.8 4.2 -6.0 3.55 Q-8.5 1.7 -8.5 -0.85 -8.5 -3.15 -6.45 -4.85 L-6.0 -5.2 -5.35 -5.65 Q-3.05 -7.05 0.05 -7.0 3.55 -7.05 6.05 -5.2 8.55 -3.4 8.55 -0.85 8.55 1.7 6.05 3.55 3.55 5.35 0.05 5.35 L-2.05 5.1 Q-4.6 6.7 -6.05 7.05" fill="none" stroke="#6699cc" stroke-linecap="round" stroke-linejoin="round" stroke-width="1.0"/>
    </g>
  </defs>
</svg>
